X:1
T:Title
%%score { ( 1 3 5 ) | ( 2 4 ) }
L:1/8
Q:1/4=114
M:4/4
K:Ab
V:1 treble nm="Grand Piano"
V:3 treble 
V:5 treble 
V:2 bass 
V:4 bass 
V:1
 [Ec]4 [DB]2 [CE]2 | [EG]3 F F4 | E2 B2 G2 FG | A4 z4 | [Ec]4 B2 F2 | A3 G G4 | c2 B2 F2 G2 | %7
w: J.~W.~Pratt * *|||||||
 [CA]6 z2 | [Fd]4 F2 [Fd]2 | [Ec]3 [DB] [CA]4 | B4 c2 B2 | z2 z A [EG]4 | [EA]2 z2 z4 | %13
w: ||||||
 B2 F2 [DFB]2 z2 | E2- [Ec]2 c3 B |[M:3/4] [CA]6 |] %16
w: |||
V:2
 [A,,A,]4 [A,,E,]2 [A,,A,]2 | [D,A,]3 [D,A,D] [D,A,D]4 | [E,G,D]4 [E,B,D]2 [E,D]2 | E,4 z4 | %4
 [A,,A,]4 [D,F,D]2 [D,F,D]2 | [E,C]3 [E,B,] [E,B,]4 | [E,G,E]4 [E,A,D]2 [E,B,D]2 | [A,,A,]6 z2 | %8
 [D,A,]4 [D,A,]2 [D,A,]2 | [A,,A,]3 [A,,A,] [A,,A,]4 | [E,G,E]4 [E,A,E]2 [E,G,E]2 | %11
 [B,,A,]2 z =D z2 _D2 | z2 E2 [A,,A,]2 z2 | [D,D]2- [D,B,D]2 D,2 z2 | z2 A,2 [E,G,E]3 [E,G,D] | %15
[M:3/4] [A,,A,]6 |] %16
V:3
 x8 | x8 | x8 | C4- [A,CE]2 z2 | x8 | x8 | x8 | x8 | x8 | x8 | x8 | [=DB]4 z4 | C4 [Ec]2 z2 | x8 | %14
 [CA]2 z2 z4 |[M:3/4] x6 |] %16
V:4
 x8 | x8 | x8 | A,,6 z2 | x8 | x8 | x8 | x8 | x8 | x8 | x8 | z2 B,,2 E,4 | A,,4 z4 | F,2 z2 z4 | %14
 E,4 z4 |[M:3/4] x6 |] %16
V:5
 x8 | x8 | x8 | x8 | x8 | x8 | x8 | x8 | x8 | x8 | x8 | z2 F,2 z4 | x8 | x8 | x8 |[M:3/4] x6 |] %16

